style-guide/assets/xd-icons-page.svg

<svg viewBox="0 0 24 24" xmlns="http://www.w3.org/2000/svg" xmlns:xlink="http://www.w3.org/1999/xlink">
  <path d="M13 16v4.586L17.586 16H13zm-8 6h6v-7a1 1 0 0 1 1-1h7V2H5v20zm7 2H4a1 1 0 0 1-1-1V1a1 1 0 0 1 1-1h16a1 1 0 0 1 1 1v13.992c0 .043-.002.086-.007.128.001.001-.001.001-.001.001v.008a1.19 1.19 0 0 1-.023.119l-.001.002-.001.006-.001.002v.001a1 1 0 0 1-.254.444l-.002.002h-.001l-.002.002-8 8a.007.007 0 0 1-.003.003l-.003.003H12.7a.995.995 0 0 1-.435.252h-.004a.885.885 0 0 1-.136.027h-.004c-.001 0 .006.002-.004.001l-.003.001A1.088 1.088 0 0 1 12 24z"/>
</svg>

<?xml version="1.0" encoding="UTF-8"?>
<svg width="24px" height="24px" viewBox="0 0 24 24" version="1.1" xmlns="http://www.w3.org/2000/svg" xmlns:xlink="http://www.w3.org/1999/xlink">
    <!-- Generator: Sketch 51.3 (57544) - http://www.bohemiancoding.com/sketch -->
    <title>note</title>
    <desc>Created with Sketch.</desc>
    <defs>
        <path d="M13,16 L13,20.586 L17.586,16 L13,16 Z M5,22 L11,22 L11,15 C11,14.447 11.447,14 12,14 L19,14 L19,2 L5,2 L5,22 Z M12,24 L11.992,24 L4,24 C3.447,24 3,23.553 3,23 L3,1 C3,0.447 3.447,0 4,0 L20,0 C20.553,0 21,0.447 21,1 L21,14.992 C21,15.035 20.998,15.078 20.993,15.12 C20.994,15.121 20.992,15.121 20.992,15.121 L20.992,15.126 L20.992,15.129 C20.986,15.169 20.979,15.209 20.969,15.248 C20.969,15.248 20.969,15.25 20.968,15.25 C20.968,15.25 20.967,15.254 20.967,15.256 L20.966,15.258 L20.966,15.259 C20.923,15.421 20.838,15.572 20.716,15.698 C20.715,15.699 20.713,15.701 20.712,15.703 L20.71,15.705 L20.709,15.705 C20.708,15.705 20.708,15.707 20.707,15.707 L12.707,23.707 C12.706,23.709 12.704,23.71 12.704,23.71 C12.702,23.712 12.702,23.713 12.701,23.713 L12.7,23.713 C12.576,23.836 12.426,23.92 12.265,23.965 L12.263,23.965 L12.262,23.965 L12.261,23.965 C12.217,23.978 12.171,23.986 12.125,23.992 L12.124,23.992 L12.121,23.992 C12.12,23.992 12.127,23.994 12.117,23.993 C12.116,23.993 12.115,23.993 12.114,23.994 C12.076,23.998 12.038,24 12,24 Z" id="path-1"></path>
    </defs>
    <g id="note" stroke="none" stroke-width="1" fill="none" fill-rule="evenodd">
        <mask id="mask-2" fill="white">
            <use xlink:href="#path-1"></use>
        </mask>
        <use id="icons/24px/Note" fill="#000000" xlink:href="#path-1"></use>
    </g>
</svg>
